X:206
T: Soldier Laddie
N: O'Farrell's Pocket Companion v.3 (Sky ed. p.104)
N: "Scotch"
M: 6/8
R: jig
L: 1/8
Q: 320
K: G
c| BAG GDE| ABA ABd|e/f/gG GDE| GAG B2G|
cBA BAG| ABA ABd| e/f/gG GDE| GAG G2 :|
d| gag gdB| eae a2b| def gdB| g a/g/f/e/ gdB|
c/d/ef gfg| aAA ABd| e/f/gG GDE| GAG G2 :|
